src/assets/duotone/ArrowSwap.svg

<svg width="24" height="24" viewBox="0 0 24 24"  xmlns="http://www.w3.org/2000/svg">
<path opacity="0.4" d="M7.81 2H16.18C19.83 2 22 4.17 22 7.81V16.18C22 19.82 19.83 21.99 16.19 21.99H7.81C4.17 22 2 19.83 2 16.19V7.81C2 4.17 4.17 2 7.81 2Z" />
<path d="M10.24 6.25C9.81998 6.25 9.48998 6.59 9.48998 7V15.19L7.81998 13.52C7.52998 13.23 7.04998 13.23 6.75998 13.52C6.46998 13.81 6.46998 14.29 6.75998 14.58L9.70998 17.53C9.77998 17.6 9.85998 17.65 9.94998 17.69C10.04 17.73 10.14 17.75 10.24 17.75C10.34 17.75 10.43 17.73 10.53 17.69C10.71 17.61 10.86 17.47 10.94 17.28C10.98 17.19 11 17.09 11 16.99V7C10.99 6.59 10.65 6.25 10.24 6.25Z" />
<path d="M17.2398 9.42L14.2898 6.47C14.2198 6.4 14.1398 6.35 14.0498 6.31C13.8698 6.23 13.6598 6.23 13.4798 6.31C13.2998 6.39 13.1498 6.53 13.0698 6.72C13.0298 6.81 13.0098 6.9 13.0098 7V17C13.0098 17.41 13.3498 17.75 13.7598 17.75C14.1698 17.75 14.5098 17.41 14.5098 17V8.81L16.1798 10.48C16.3298 10.63 16.5198 10.7 16.7098 10.7C16.8998 10.7 17.0898 10.63 17.2398 10.48C17.5298 10.19 17.5298 9.71 17.2398 9.42Z" />
</svg>

<?xml version="1.0" encoding="UTF-8"?>
<svg width="24" height="24" viewBox="0 0 24 24" xmlns="http://www.w3.org/2000/svg">
 <path d="M7.81 2H16.18C19.83 2 22 4.17 22 7.81V16.18C22 19.82 19.83 21.99 16.19 21.99H7.81C4.17 22 2 19.83 2 16.19V7.81C2 4.17 4.17 2 7.81 2Z" opacity=".4"/>
 <path d="m10.24 6.25c-0.42002 0-0.75002 0.34-0.75002 0.75v8.19l-1.67-1.67c-0.29-0.29-0.77-0.29-1.06 0s-0.29 0.77 0 1.06l2.95 2.95c0.07 0.07 0.15 0.12 0.24 0.16 0.09002 0.04 0.19002 0.06 0.29002 0.06s0.19-0.02 0.29-0.06c0.18-0.08 0.33-0.22 0.41-0.41 0.04-0.09 0.06-0.19 0.06-0.29v-9.99c-0.01-0.41-0.35-0.75-0.76-0.75z"/>
 <path d="m17.24 9.42-2.95-2.95c-0.07-0.07-0.15-0.12-0.24-0.16-0.18-0.08-0.39-0.08-0.57 0s-0.33 0.22-0.41 0.41c-0.04 0.09-0.06 0.18-0.06 0.28v10c0 0.41 0.34 0.75 0.75 0.75s0.75-0.34 0.75-0.75v-8.19l1.67 1.67c0.15 0.15 0.34 0.22 0.53 0.22s0.38-0.07 0.53-0.22c0.29-0.29 0.29-0.77 0-1.06z"/>
</svg>
